X: 18533
M: 6/8
L: 1/8
K: G
V: 1 clef=treble middle=B
(G/A/) |\
[GB,]DD [AF]DD | [cA]d[BG] [A2F2](G/A/) |\
|: (B/c/) |\
dgf {f}e^de | Adc {c}B^AB |\
EF^G ABc | ABG FED |\
{A}GFG {B}AGA | {c}[BG]AB [cG]de |\
[eG]d[cF] [BG]c[AE] | [GB,][AC][FA,] [G2B,2] :|
V: 2 clef=bass middle=d
z |\
[g2G2]d [g2G2]z | [g2G2]d [g2G2]z | [g2G2]z [a2d2]z | f2g d2z |\
[g2G2]d [g2G2]z | [g2G2]d [g2G2]z | B2B c2A | d2D G2 :|
|: z |\
[g3-B3] [g2c2]z | [d'3-f3] [d'2g2]z | c'2[d'b] [c'2a2]z | [a2-c2][a-^c] [a2d2]z |\
[g3G3-] [f3G3] | [=f3G3-][e2G2].c | B2A G2c | d2D G2 :|

